public/shapes/borders/border1.svg

<svg
  xmlns="http://www.w3.org/2000/svg"
  width="400"
  height="400"
  viewBox="0 0 400 400"
  preserveAspectRatio="none"
>
  <path
    fill="#CA9845"
    d="M71.2 82L0 82.15V440h23l-.05-334.25 23.4-.2L46.3 440h24.9V82m0-12.35V.25H0v69.5l71.2-.1m-24.85-46.8l-.1 21.8h-23.2l-.1-21.8h23.4m389.65.1V0H83.35v23.3h.15v23.05h-.15V71.2H436V46.35H107v-23.4h329z"
  />
</svg>

<svg xmlns="http://www.w3.org/2000/svg" version="1.1" xmlns:xlink="http://www.w3.org/1999/xlink" preserveAspectRatio="none" x="0px" y="0px" width="400px" height="400px" viewBox="0 0 400 400">
<defs>
<g id="Layer0_0_FILL">
<path fill="#CA9845" stroke="none" d="
M 71.2 82
L 0 82.15 0 440 23 440 22.95 105.75 46.35 105.55 46.3 440 71.2 440 71.2 82
M 71.2 69.65
L 71.2 0.25 0 0.25 0 69.75 71.2 69.65
M 46.35 22.85
L 46.25 44.65 23.05 44.65 22.95 22.85 46.35 22.85
M 436 22.95
L 436 0 83.35 0 83.35 23.3 83.5 23.3 83.5 46.35 83.35 46.35 83.35 71.2 436 71.2 436 46.35 107 46.35 107 22.95 436 22.95 Z"/>
</g>
</defs>

<g transform="matrix( 1, 0, 0, 1, 0,0) ">
<use xlink:href="#Layer0_0_FILL"/>
</g>
</svg>
